!!!!SEGMENT: pl-wn--sd-xvi-qu-273--084_gomolka-mikolaj--boze-nasz-u-ktorego-w-reku-wszytki-boje.krn
!!!cenid: 15xx:289
!!!COM: Gomółka, Mikołaj
!!!COM-rismid: pe30013343
!!!CDT: ~1535->1591/04/30
!!!CNT: Polish
!!!GTL: Melodiae na psalterz polski
!!!OTL: LXXXIV. Boże nasz, u którego w ręku wszytki boje,
!!!PDT: 1580
!!!AGN: Sacred
!!!SMS-siglum: PL-Wn
!!!SMS-shelfmark: SD XVI.Qu.273
!!!SMS-shelfwork: 084 G
!!!NIFC-rismid:
!!!ONB-nifc:
**kern	**text	**kern	**text	**kern	**text	**kern	**text
*part4	*part4	*part3	*part3	*part2	*part2	*part1	*part1
*staff4	*staff4	*staff3	*staff3	*staff2	*staff2	*staff1	*staff1
*clefF4	*	*clefC3	*	*clefC3	*	*clefC1	*
*k[]	*	*k[]	*	*k[]	*	*k[]	*
*C:	*	*C:	*	*C:	*	*C:	*
*M4/2	*	*M4/2	*	*M4/2	*	*M4/2	*
*met(C|)	*	*met(C|)	*	*met(C|)	*	*met(C|	*
=1	=1	=1	=1	=1	=1	=1	=1
*>A	*	*	*	*	*	*	*
1G	Bo-	1B	Bo-	1d	Bo-	1g	Bo-
1G	-ʒ̇e	1B	-ʒ̇e	1d	-ʒ̇e	1g	-ʒ̇e
=2-	2	=2	=2	=2	=2	=2	=2
2C	náʃʒ/	2c/	náʃʒ/	2e	náʃʒ/	2g/	náʃʒ/
2F	u	2c/	u	2f	u	2a	u
2D/	ťtó-	2d	ťtó-	2f	ťtó-	2a	ťtó-
2E	-ré-	2B	-ré-	4e	-ré	2g/	-ré-
.	.	.	.	4d	.	.	.
=3-	3	=3	=3	=3	=3	=3	=3
2F	-go	2A	-go	2c/	go	2a	-go
2D/	w_rę-	2d	w_rę-	2f	w_rę-	2b	w_rę-
2C	-ťu	2.e	-ťu	2.g	-ťu	2.cc	-ťu
2E	.	.	.	.	.	.	.
.	.	4d	.	4g	.	4b	.
=4-	4	=4	=4	=4	=4	=4	=4
2F	wʃʒyʃ-	4c/	wʃʒyʃ	4f	wʃʒyʃ	2a	wʃʒyʃ-
.	.	4B	.	4e	.	.	.
2G	-tťie	4B	tťie	4d	tťie	1g	-tťie
.	.	8AL	.	4c	.	.	.
.	.	8GJ	.	.	.	.	.
1D	bo-	1A	bo-	2.d	bo	.	.
.	.	.	.	.	.	2f	bo-
.	.	.	.	4c	.	.	.
=5-	5	=5	=5	=5	=5	=5	=5
2GG	-ie/	2G	-ie/	2B	ie/	2g/	-ie/
2G	Já-	2d	Já-	2B	Já-	2g/	Já-
2c	-ťo	2e	-ťo	2c/	-ťo	2e	-ťo
2A	ʃą	4d	ʃą	2c/	ʃą	2f	ʃą
.	.	4c/	.	.	.	.	.
=6-	6	=6	=6	=6	=6	=6	=6
1G	wdʒ́ię-	4B	wdʒ́ię-	4d	wdʒ́ię-	1g	wdʒ́ię-
.	.	2c/	.	2e	.	.	.
.	.	4B	.	4d	.	.	.
!!LO:PB:g=original
2C	-cʒné	2c/	cʒné	4e	cʒné	2g/	-cʒné
.	.	.	.	4f	.	.	.
2G	pá-	2d	pá	2.g	pá	2b	pá-
=7-	7	=7	=7	=7	=7	=7	=7
2C	-łá-	4e	.	.	.	2cc	-łá-
.	.	4f	łá-	4f	łá-	.	.
2C	-ce	1g	-cetwo-	2e	-ce	2ee	-ce
1D	twoie:	.	.	2.f	two-	2.dd	two
.	.	2f	-ie:	.	.	.	.
.	.	.	.	4e	-(ie):	4cc	ie:
=8-	8	=8	=8	=8	=8	=8	=8
2GG	Tych	2g	Tych	2d	Tych	2b	Tych
2C	prág-	2c/	prág-	2e	prág-	2cc	prág-
4AA	-(nie)	1c	-(nie)	2.e	-(nie)	1cc	-nie/
4BB	.	.	.	.	.	.	.
4C	.	.	.	.	.	.	.
4D/	.	.	.	4f	.	.	.
=9-	9	=9	=9	=9	=9	=9	=9
4E	do	4G	do	2g	do	2b	do
4F	.	4A	.	.	.	.	.
2G	tych	4B	tych	2g	tych	2b	tych
.	.	4c/	.	.	.	.	.
2D/	wʒdy-	2d	wʒdy	2f	wʒdy-	2a	wʒdy-
4r	.	4r	.	4r	.	4r	.
4F	-cha	4c/	cha	4f	-cha	4a	-cha
=10-	10	=10	=10	=10	=10	=10	=10
2C	du-	2c/	du-	2e	du-	2g/	du-
2GG	-ʃʒá	4B	-ʃʒá	2d	-ʃʒá	2g/	-ʃʒá
.	.	4A	.	.	.	.	.
2C	u	2G	u	2c/	u-	2e	u-
1BB-X	.	1B-X	.	1d	.	1f	.
=11-	11	=11	=11	=11	=11	=11	=11
.	.	.	.	.	.	.	.
2C	tra-	2G	tra	1c	tra-	2e	tra-
1GG	-(pio-	1G	(pio-	.	.	1d	-(pio-
.	.	.	.	2B	-(pio-	.	.
=12-	12	=12	=12	=12	=12	=12	=12
2C	-na):	2G	-na):	2c/	-na)/	2e	-na):
2.C	Tám	2c	Tám	2g	Tám	2cc	Tám
.	.	1e	ʃer-	1g	ʃer-	1cc	ʃer-
4D/	ʃer-	.	.	.	.	.	.
4E	.	.	.	.	.	.	.
4F	.	.	.	.	.	.	.
!!LO:PB:g=original
=13-	13	=13	=13	=13	=13	=13	=13
2G	ce	1d	-ce/	1g	-ce	1g	-ce/
2GG	.	.	.	.	.	.	.
1D	y_myśl	2A	y	2f	y	2a	y
.	.	2A	myśl	2d	myśl	2f	myśl
=14-	14	=14	=14	=14	=14	=14	=14
1GG	wʃʒyt-	2B	wʃʒyt-	1d	wʃʒyt-	2.g	wʃʒyt-
.	.	2B	.	.	.	.	.
.	.	.	.	.	.	4f	.
!	!	!	!	!LO:N:vis=6	!	!	!
2AA	ťá	2c	ťá	4A	-ťá	2e	ťá
!	!	!	!	!LO:N:vis=6	!	!	!
.	.	.	.	4B	.	.	.
!	!	!	!	!LO:N:vis=6	!	!	!
2FF	ʃťło-	2A	ʃťło-	2c	ʃťło-	4f	ʃťło
.	.	.	.	.	.	4e	.
=15-	=15	=15	=15	=15	=15	=15	=15
1GG	-nio-	4B	-nio	4.G	-nio	4d	.
.	.	2c	.	.	.	2e	nio
.	.	.	.	8A	.	.	.
.	.	.	.	2B	.	.	.
.	.	4B	.	.	.	4d	.
!	!	!	!	!	!	!LO:N:vis=00	!
00C	-na.	00c	na.	00G	-na	0e	na.
=16-	=16	=16	=16	=16	=16	=16	=16
.	.	.	.	.	.	.	.
.	.	.	.	.	.	1f	.
=17-	=17	=17	=17	=17	=17	=17	=17
!!Dodatkowe dźwięki dopisane przez:Paulus Klopcensky Mies
.	.	.	.	.	.	2a	.
.	.	.	.	.	.	2f	.
=	=	=	=	=	=	=	=
*-	*-	*-	*-	*-	*-	*-	*-
!!!RDF**kern: l = terminal long
!!!system-decoration: s1,s2,s3,s4
!!!ENC:Anna Matuszewska
!!!END:2020-02-23
!!!URL-scan: https://polona.pl/item/melodiae-na-psalterz-polski,Nzk3MTM4ODQ/197 Scan on Polona
!!!IIIF: https://polona.pl/iiif/item/Nzk3MTM4ODQ/manifest.json
